X:1
T:In dew of roses - Morley
T:#
%%score [ 1 2 3 4 ]
L:1/8
Q:1/4=120
M:4/4
K:C
V:1 treble nm="Soprano" snm="S"
V:2 treble nm="Alto" snm="A"
V:3 treble-8 nm="Tenor" snm="T"
V:4 bass nm="Bass" snm="B"
V:1
 A8 | c3 B A2 A2 |"^In dew of roses" z2 A2 c3 B | A3 d c2 B2- | %4
w: In|dew of ros- es,|in dew of|ros- es, of ros\-|
 B2 A2 (A2"^Thomas Morley\n(1557-1603)" ^G2) |[M:4/4] A2 A2 B3 A | ^G2 A2 (A2 G2) | A2 C2 F4 | E8 | %9
w: * es steep\- *|ing Her love- ly|cheeks Ly- co\- *|ris thus sat|weep-|
 E8 | z2 A2 c3 B | A2 A2 z2 A2 | c3 B A2 d2 | (c4 B4) | A2 D2 d3 c | B2 A2 B4 | A2 A2 B3 A | %17
w: ing.|In dew of|ros- es, in|dew of ros- es|steep\- *|ing Her love- ly|cheeks, Ly- co-|ris, Ly- co- ris|
 ^G2 A2 (A2 G2) | A8 | z2 c2 B2 A2 | ^G2 z2 z2 A2 | ^G2 c2 B2 c2 | d3 d d2 c2 | B8 | B2 B2 c3 B | %25
w: thus sat weep\- *|ing.|Ah Dor- us|false, ah|Dor- us false, that|hast my heart be-|reft|me, And now un-|
 A2 A2 ^G4 | A4 z4 | z2 cd e2 dc | B2 A2 z2 c2 | A2 z2 c2 A2 | z2 A2 ^F2 F2 | G4 G4 | (C4 D4) | %33
w: kind hast left|me:|Hear, a- las hear, O|hear me; Ay|me, ay me,|can- not my|beau- ty|move *|
 E4 e4- | e2 B2 c4 | B4 A4 | ^G4 A4 | E4 E4 | E8 | E8 |[M:3/2] z4 e4 B4 | z4 z2 B2 c2 B2 | %42
w: thee? Pi\-|* ty then,|pi- ty|me be-|cause I|love|thee.|Ay me,|thou scornst the|
 A2 ^G2 A2 E2 z2 E2 | F2 E2 D2 C2 B,4 | A,2 E2 A2 ^G2 A2 E2 | z2 B2 c2 B2 A2 ^G2 | %46
w: more I pray thee, And|this thou dost to slay|me, thou dost to slay me;|thou scornst the more I|
 (A2 E2) E4 z2 E2 | F2 E2 (D2 C2) B,2 E2 | A2 ^G2 A2 E2 E2 E2 |[M:4/4] E4 E4 | z8 | %51
w: pray * thee, and|this thou dost to slay me,|this thou dost, thou dost to|slay me.||
[M:3/4] z2 E2 G2- | G2 ^F4 | E2 D4 |[M:3/4] C3 F E2 | E2 E2 z2 | c3 c B2 |[M:4/4] B2 B2 z4 | %58
w: But do|* then,|then do|kill me and|vaunt thee,|kill me and|vaunt thee.|
 z4 z2 e2- |[M:4/4] eB c2 B2 A2 | ^G2 e3 B c2 | B2 A2 ^G2 e2- | eB c2 B2 A2 | ^G2 e3 B c2 | %64
w: Yet|* my ghost still shall|haunt, yet my ghost|still shall haunt, yet|* my ghost still shall|haunt, yet my ghost|
 B2 A4 ^G2 | A8 |] %66
w: still shall haunt|thee.|
V:2
 z4 A4- | A4 c3 B | A2 A2 z2 A2 | c3 B A2 d2 | (c4 B4) |[M:4/4] A2 D2 d3 c | B2 A2 B4 | %7
w: In|* dew of|ros- es, in|dew of ros- es,|steep\- *|ing Her love- ly|cheeks Ly- co-|
 A2 A2 B3 A | ^G2 A2 (A2 G2) | A4 z2 A2 | c3 B A2 A2 | z2 A2 c3 B | A3 d c2 B2- | B2 A2 (A2 ^G2) | %14
w: ris, Ly- co- ris|thus sat weep\- *|ing. In|dew of ros- es,|in dew of|ros- es, of ros\-|* es steep\- *|
 A2 A2 B3 A | ^G2 A2 (A2 G2) | A2 C2 F4 | E8 | E8 | z2 A2 ^G2 c2 | B2 z2 z2 c2 | B2 A2 ^G2 A2 | %22
w: ing Her love- ly|cheeks, Ly- co\- *|ris thus sat|weep-|ing.|Ah Dor- us|false, ah|Dor- us false, that|
 B3 B B2 (AG) | ^F2 E2 F4 | ^G2 =G2 A3 G | F2 F2 E4 | E4 z4 | z2 AB c2 BA | ^G2 A2 z4 | %29
w: hast my heart, my *|heart be- reft|me, And now un-|kind hast left|me:|Hear, a- las hear, O|hear me;|
 c2 A2 z2 c2 | A4 z2 d2 | B2 B2 c4- | c2 B2 A4 | ^G4 E4 | (B4 A4) | ^G4 e4- | e2 B2 c4 | %37
w: Ay me, ay|me, can-|not my beau\-|* ty move|thee, not|move *|thee? Pi\-|* ty then|
 B2 B2 A4- | A2 (^G^F) G4 | A4 A4 |[M:3/2] ^G8 z4 | z2 B2 c2 B2 A2 ^G2 | A2 B2 c2 B2 A2 ^G2 | %43
w: me be- cause|* I * love|thee. Ay|me,|thou scornst the more I|pray thee, scornst the more, the|
 A4 A2 (A4 ^G2) | A2 B2 c2 B2 A2 ^G2 | A2 E2 z4 z2 B2 | c2 B2 A2 ^G2 A2 B2 | z2 E2 F2 E2 E3 D | %48
w: more I pray *|thee, And this thou dost to|slay me, thou|scornst the more I pray thee,|and this thou dost to|
 (C2 B,2) A,2 B2 c2 B2 |[M:4/4] A4 ^G4 | z8 |[M:3/4] z6 | B2 d4 | c2 B4 |[M:3/4] A3 A ^G2 | %55
w: slay * me, thou dost to|slay me.|||But do,|then do|kill me and|
 A2 A2 z2 | G3 A ^F2 |[M:4/4] ^G2 G2 z2 e2- | eB c2 B2 A2 |[M:4/4] (^G2 A2) E2 e2- | eB c2 B2 A2 | %61
w: vaunt thee,|kill me and|vaunt thee. Yet|* my ghost still shall|haunt * thee, yet|* my ghost still shall|
 ^G2 e3 B c2 | B2 A2 ^G2 e2- | eB c2 B2 A2 | ^G2 A2 B4 | ^c8 |] %66
w: haunt, yet my ghost|still shall haunt, yet|* my ghost still shall|haunt, shall haunt|thee.|
V:3
 z8 | z8 | z8 | z8 | z4 z2 e2 |[M:4/4][K:treble-8] f3 e d2 d2 | e8 | A2 A2 d3 c | B2 A2 B4 | %9
w: ||||Her|love- ly cheeks Ly-|co-|ris, Ly- co- ris|thus sat weep-|
 A2 A2 c3 B | A2 A2 z4 | z8 | z8 | z4 z2 e2 | f3 e d2 d2 | e8 | A2 A2 d3 c | B2 A2 B4 | A6 c2 | %19
w: ing. In dew of|ros- es,|||Her|love- ly cheeks, Ly-|co-|ris, Ly- co- ris|thus sat weep-|ing. Ah|
 B2 A2 B2 z2 | z2 c2 B2 A2 | B2 z2 z2 e2 | g3 g g2 e2 | ^d2 e4 d2 | e2 e2 e3 e | c2 d2 B4 | %26
w: Dor- us false,|ah Dor- us|false, that|hast my heart, my|heart be- reft|me, And now un-|kind hast left|
 ^c2 =cd e2 dc | B2 A2 z4 | z2 c2 A4 | z2 c2 A4 | c2 A2 A2 (d2- | dc BA G2) G2 | A8 | B4 c4 | %34
w: me: Hear, a- las hear, O|hear me;|Ay me,|ay me,|can- not my beau\-|* * * * * ty|move|thee, move|
 B4 e4- | e2 B2 c4 | B4 e4- | e2 B2 c2 c2 | B2 A2 B4 | ^c4 =c4 |[M:3/2][K:treble-8] B8 z2 B2 | %41
w: thee? Pi\-|* ty then|me, pi\-|* ty me be-|cause I love|thee. Ay|me thou|
 c2 B2 A2 ^G2 A2 B2 | c2 B2 A2 ^G2 A2 B2 | z2 e2 f2 e2 e3 d | c2 B2 A2 B2 c2 B2 | %45
w: scornst the more I pray, thou|scornst the more I pray thee,|And this thou dost to|slay me, this thou dost to|
 A2 G2 A2 E2 A2 E2 | z2 B2 c2 B2 A2 ^G2 | A2 A4 A2 ^G4 | A2 B2 c2 B2 A2 B2 | %49
w: slay me, dost to slay me;|thou scornst the more I|pray thee, I pray|thee, and this thou dost to|
[M:4/4][K:treble-8] c4 B4 | z2 B2 d4 |[M:3/4] c4 B2 | e2 d4 | g2 g4 |[M:3/4][K:treble-8] e3 d B2 | %55
w: slay me.|But do,|then do,|but do,|then do|kill me and|
 ^c2 c2 z2 | e3 e ^d2 |[M:4/4] e2 e2 z4 | z8 |[M:4/4][K:treble-8] z2 e3 B c2 | B2 A2 ^G2 e2- | %61
w: vaunt thee,|kill me and|vaunt thee.||Yet my ghost|still shall haunt, yet|
 eB c2 B2 A2 | ^G2 e3 B c2 | B2 A2 G2 e2- | eB c2 B4 | A8 |] %66
w: * my ghost still shall|haunt, yet my ghost|still shall haunt, still|* it shall haunt|thee.|
V:4
 z8 | z8 | z8 | z8 | z8 |[M:4/4] z8 | z4 z2 E,2 | F,3 E, D,2 D,2 | E,8 | A,,8 | z4 z2 A,2 | %11
w: ||||||Ly-|co- ris thus sat|weep-|ing.|In|
 C3 B, A,2 A,2 | z8 | z8 | z8 | z4 z2 E,2 | F,3 E, D,2 D,2 | E,8 | A,,6 A,2 | ^G,2 A,2 E,2 z2 | %20
w: dew of ros- es,||||Ly-|co- ris thus sat|weep-|ing. Ah|Dor- us false,|
 z2 A,2 ^G,2 A,2 | E,2 z2 z2 A,2 | G,3 G, G,2 A,2 | B,8 | E,2 E,2 A,3 E, | F,2 D,2 E,4 | %26
w: ah Dor- us|false, that|hast my heart be-|reft|me, And now un-|kind hast left|
 A,,2 A,B, C2 B,A, | ^G,2 A,2 z4 | z2 A,2 F,4 | z2 A,2 F,4 | z2 F,2 D,2 D,2 | G,4 E,4 | F,8 | %33
w: me: Hear, a- las hear, O|hear me;|Ay me,|ay me,|can- not my|beau- ty|move|
 E,4 E,4 | ^G,4 A,4 | E,4 A,,4 | E,3 E, A,,2 A,,2 | ^G,,4 A,,4 | E,8 | A,,4 A,4 | %40
w: thee? Pi-|ty then,|pi- ty,|pi- ty me be-|cause I|love|thee. Ay|
[M:3/2] E,8 z2 E,2 | A,2 ^G,2 A,2 E,2 A,,2 E,2 | A,,2 E,2 A,,2 E,2 F,2 E,2 | %43
w: me, thou|scornst the more I pray thee,|I pray thee, thou scornst the|
 D,2 ^C,2 (D,2 A,,2) E,2 E,2 | A,2 ^G,2 A,2 E,2 A,,2 E,2 | F,2 E,2 z2 B,2 C2 B,2 | %46
w: more I pray * thee, And|this thou dost, thou dost to|slay me, thou scornst the|
 A,2 ^G,2 A,2 E,2 !courtesy!=F,2 E,2 | D,2 ^C,2 D,2 A,,2 E,4 | A,,2 E,2 A,2 ^G,2 A,2 E,2 | %49
w: more I pray, and this thou|dost, thou dost to slay|me, and this thou dost to|
[M:4/4] A,,4 E,2 E,2 | G,4 F,4 |[M:3/4] E,6 | E,2 B,4 | C2 G,4 |[M:3/4] A,3 D, E,2 | A,2 A,2 z2 | %56
w: slay me. But|do, then|do,|but do,|then do|kill me and|vaunt thee,|
 C3 A, B,2 |[M:4/4] E,4 E,4 | z2 E,3 B,, C,2 |[M:4/4] B,,2 A,,2 (^G,,2 A,,2) | E,8 | E,8 | E,8- | %63
w: kill me and|vaunt thee.|Yet my ghost|still shall haunt *|thee,|shall|haunt|
 E,8 | E,8 | A,,8 |] %66
w: ||thee.|

